Sources/FrostedUI/Resources/Icons.xcassets/profileX24.imageset/profile-x-24.svg

<svg width="24" height="24" viewBox="0 0 24 24" fill="none" xmlns="http://www.w3.org/2000/svg" data-fui-icon="true">
  <path
    d="M12.0009 12.5C12.5666 12.5 13.1146 12.552 13.6405 12.6514C14.0474 12.7284 14.315 13.1204 14.2382 13.5273C14.1612 13.9341 13.769 14.2017 13.3622 14.125C12.93 14.0434 12.4752 14 12.0009 14C11.9556 14 11.9108 14.0002 11.8671 14.001H11.8661C11.7328 14.0033 11.6009 14.0094 11.4706 14.0186C11.4432 14.0205 11.4158 14.0232 11.3885 14.0254C11.2611 14.0357 11.135 14.0487 11.0106 14.0654C11.0015 14.0667 10.9923 14.0681 10.9833 14.0693C10.86 14.0864 10.7382 14.1067 10.618 14.1299C10.6031 14.1327 10.588 14.1347 10.5731 14.1377C8.22945 14.6049 6.48396 16.2193 5.68738 18.373C5.58495 18.65 5.64466 18.9049 5.82019 19.1143C6.0061 19.3357 6.324 19.5 6.69714 19.5H12.2509C12.6651 19.5 13.0009 19.8358 13.0009 20.25C13.0009 20.6642 12.6651 21 12.2509 21H6.69714C5.89226 21 5.14919 20.6484 4.67078 20.0781C4.18208 19.4953 3.97384 18.6808 4.28015 17.8525C5.2128 15.3309 7.24264 13.3946 9.94714 12.7402C10.0151 12.7238 10.0835 12.7082 10.1522 12.6934C10.182 12.6869 10.2121 12.6809 10.2421 12.6748C10.2974 12.6635 10.3532 12.6528 10.4091 12.6426C10.5836 12.6107 10.7608 12.5838 10.9403 12.5625C11.0041 12.5549 11.0683 12.5472 11.1327 12.541C11.1567 12.5387 11.1809 12.5373 11.205 12.5352C11.2894 12.5277 11.3745 12.5217 11.4598 12.5166C11.4816 12.5153 11.5035 12.5138 11.5253 12.5127C11.6294 12.5073 11.7343 12.5028 11.8397 12.501L12.0009 12.5ZM19.4706 15.4697C19.7634 15.1769 20.2382 15.177 20.5311 15.4697C20.824 15.7626 20.824 16.2374 20.5311 16.5303L19.0614 18L20.5311 19.4697C20.824 19.7626 20.824 20.2374 20.5311 20.5303C20.2382 20.823 19.7634 20.8231 19.4706 20.5303L18.0009 19.0605L16.5311 20.5303C16.2382 20.823 15.7634 20.8231 15.4706 20.5303C15.1779 20.2374 15.1779 19.7626 15.4706 19.4697L16.9403 18L15.4706 16.5303C15.1779 16.2374 15.1779 15.7626 15.4706 15.4697C15.7634 15.1769 16.2382 15.177 16.5311 15.4697L18.0009 16.9395L19.4706 15.4697ZM12.0009 2C14.4861 2 16.5009 4.01471 16.5009 6.5C16.5009 8.98529 14.4861 11 12.0009 11C9.51571 10.9998 7.50085 8.98517 7.50085 6.5C7.50085 4.01483 9.51571 2.00019 12.0009 2ZM12.0009 3.5C10.3441 3.50019 9.00085 4.84326 9.00085 6.5C9.00085 8.15674 10.3441 9.49981 12.0009 9.5C13.6576 9.5 15.0009 8.15685 15.0009 6.5C15.0009 4.84315 13.6576 3.5 12.0009 3.5Z"
    fill="currentColor"
  />
</svg>

<svg xmlns="http://www.w3.org/2000/svg" width="24" height="24" fill="none" data-fui-icon="true" viewBox="0 0 24 24"><path fill="currentColor" d="M12 12.5q.851.001 1.64.151a.75.75 0 0 1-.278 1.474 7.3 7.3 0 0 0-1.495-.124 7 7 0 0 0-.396.018l-.082.006q-.192.016-.378.04l-.028.004a7 7 0 0 0-.365.06l-.045.009c-2.344.467-4.089 2.081-4.886 4.235a.72.72 0 0 0 .133.741c.186.222.504.386.877.386h5.554a.75.75 0 0 1 0 1.5H6.697a2.65 2.65 0 0 1-2.026-.922 2.21 2.21 0 0 1-.39-2.226c.932-2.521 2.962-4.457 5.666-5.112l.205-.047.09-.018a8 8 0 0 1 .698-.113q.096-.011.193-.021l.072-.006q.127-.01.255-.018l.065-.004a9 9 0 0 1 .315-.012zm7.47 2.97a.75.75 0 0 1 1.061 1.06L19.061 18l1.47 1.47a.75.75 0 1 1-1.06 1.06L18 19.06l-1.47 1.47a.75.75 0 0 1-1.06-1.06L16.94 18l-1.47-1.47a.75.75 0 0 1 1.06-1.06l1.47 1.47zM12 2a4.5 4.5 0 1 1 0 9 4.5 4.5 0 0 1 0-9m0 1.5a3 3 0 1 0 .001 6 3 3 0 0 0 0-6"/></svg>
